branches/nugui/src/gui/icons/stack_geometry.svg

<?xml version="1.0" encoding="UTF-8" standalone="no"?>
<!-- Created with Inkscape (http://www.inkscape.org/) -->

<svg
   xmlns:dc="http://purl.org/dc/elements/1.1/"
   xmlns:cc="http://creativecommons.org/ns#"
   xmlns:rdf="http://www.w3.org/1999/02/22-rdf-syntax-ns#"
   xmlns:svg="http://www.w3.org/2000/svg"
   xmlns="http://www.w3.org/2000/svg"
   xmlns:xlink="http://www.w3.org/1999/xlink"
   xmlns:inkscape="http://www.inkscape.org/namespaces/inkscape"
   version="1.0"
   width="100"
   height="100"
   id="svg2">
  <metadata
     id="metadata2566">
    <rdf:RDF>
      <cc:Work
         rdf:about="">
        <dc:format>image/svg+xml</dc:format>
        <dc:type
           rdf:resource="http://purl.org/dc/dcmitype/StillImage" />
      </cc:Work>
    </rdf:RDF>
  </metadata>
  <defs
     id="defs4">
    <linearGradient
       id="linearGradient3187">
      <stop
         id="stop3189"
         style="stop-color:#cccdff;stop-opacity:1"
         offset="0" />
      <stop
         id="stop3191"
         style="stop-color:#cccdca;stop-opacity:0.33333334"
         offset="1" />
    </linearGradient>
    <linearGradient
       id="linearGradient3384">
      <stop
         id="stop3386"
         style="stop-color:#0000ff;stop-opacity:1"
         offset="0" />
      <stop
         id="stop3388"
         style="stop-color:#000000;stop-opacity:1"
         offset="1" />
    </linearGradient>
    <linearGradient
       id="linearGradient3252">
      <stop
         id="stop3254"
         style="stop-color:#ffffff;stop-opacity:1"
         offset="0" />
      <stop
         id="stop3256"
         style="stop-color:#7f7fff;stop-opacity:0"
         offset="1" />
    </linearGradient>
    <linearGradient
       x1="3.5899789"
       y1="36.400818"
       x2="97.023521"
       y2="36.400818"
       id="linearGradient3217"
       xlink:href="#linearGradient3187"
       gradientUnits="userSpaceOnUse" />
    <linearGradient
       x1="25.398125"
       y1="63.345894"
       x2="90.625114"
       y2="63.345894"
       id="linearGradient2434"
       xlink:href="#linearGradient3384"
       gradientUnits="userSpaceOnUse"
       gradientTransform="matrix(0.2688926,0.2688926,-0.2688926,0.2688926,38.227733,-8.4494346)" />
    <radialGradient
       cx="58.01162"
       cy="63.345894"
       r="33.113495"
       fx="58.01162"
       fy="63.345894"
       id="radialGradient2436"
       xlink:href="#linearGradient3252"
       gradientUnits="userSpaceOnUse"
       gradientTransform="matrix(0.2134373,0,0,0.2134373,19.805211,5.9610473)" />
    <linearGradient
       x1="25.398125"
       y1="63.345894"
       x2="90.625114"
       y2="63.345894"
       id="linearGradient2446"
       xlink:href="#linearGradient3384"
       gradientUnits="userSpaceOnUse"
       gradientTransform="matrix(0.2688926,0.2688926,-0.2688926,0.2688926,38.227733,-8.4494346)" />
    <radialGradient
       cx="58.01162"
       cy="63.345894"
       r="33.113495"
       fx="58.01162"
       fy="63.345894"
       id="radialGradient2448"
       xlink:href="#linearGradient3252"
       gradientUnits="userSpaceOnUse"
       gradientTransform="matrix(0.2134373,0,0,0.2134373,19.805211,5.9610473)" />
  </defs>
  <path
     d="m 31.803576,49.64505 c 0.001,6.016468 -4.875961,10.894338 -10.892438,10.894338 -6.016465,0 -10.893484,-4.87787 -10.892425,-10.894338 -10e-4,-6.01647 4.87596,-10.894338 10.892425,-10.894338 6.016477,0 10.893484,4.877868 10.892438,10.894338 l 0,0 z"
     inkscape:connector-curvature="0"
     id="use2515"
     style="fill:#eaede8;fill-opacity:1;fill-rule:evenodd;stroke:none" />
  <path
     d="m 97.336857,29.180273 c 0.001,6.016468 -4.875965,10.894336 -10.892442,10.894336 -6.016464,0 -10.893484,-4.877868 -10.892425,-10.894336 -0.001,-6.01647 4.875961,-10.89434 10.892425,-10.89434 6.016477,0 10.89349,4.87787 10.892442,10.89434 l 0,0 z"
     inkscape:connector-curvature="0"
     id="use2517"
     style="fill:#c1c0c2;fill-opacity:1;fill-rule:evenodd;stroke:none" />
  <g
     transform="matrix(0.45418942,0.83437181,-0.83437181,0.45418942,52.380979,-18.807371)"
     id="g3669"
     style="fill:#c1c0c2;fill-opacity:1;stroke:none">
    <path
       d="m 96.52352,59.509204 c -29.455343,0 -51.469115,0 -92.433541,0 0,-25.511657 20.705113,-46.21677 46.21677,-46.21677 25.511657,0 46.216771,20.705113 46.216771,46.21677 z"
       inkscape:connector-curvature="0"
       id="path3671"
       style="fill:#c1c0c2;fill-opacity:1;fill-rule:evenodd;stroke:none" />
    <path
       d="M 49.946865,59.191757 16.406253,44.970273 m 33.828912,13.928004 0.07159,-36.986598 M 50.611846,59.057108 84.207245,44.970273 M 87.000381,59.26463 49.946865,59.337502 13.613118,59.26463 M 24.360434,32.852106 50.10289,58.954052 36.264704,24.755004 m 28.084091,0 L 50.51061,58.954052 76.253065,32.852106"
       inkscape:connector-curvature="0"
       id="path3673"
       style="fill:#c1c0c2;fill-opacity:1;fill-rule:evenodd;stroke:none" />
    <text
       x="16.601501"
       y="32.732803"
       id="text3675"
       xml:space="preserve"
       style="font-size:6.36857796px;font-style:normal;font-weight:normal;fill:#c1c0c2;fill-opacity:1;stroke:none;font-family:Bitstream Vera Sans"><tspan
         x="16.601501"
         y="32.732803"
         id="tspan3677">45</tspan></text>
    <text
       x="45.530113"
       y="19.400709"
       id="text3679"
       xml:space="preserve"
       style="font-size:6.36857796px;font-style:normal;font-weight:normal;fill:#c1c0c2;fill-opacity:1;stroke:none;font-family:Bitstream Vera Sans"><tspan
         x="45.530113"
         y="19.400709"
         id="tspan3681">90</tspan></text>
    <text
       x="72.773872"
       y="32.981483"
       id="text3683"
       xml:space="preserve"
       style="font-size:6.36857796px;font-style:normal;font-weight:normal;fill:#c1c0c2;fill-opacity:1;stroke:none;font-family:Bitstream Vera Sans"><tspan
         x="72.773872"
         y="32.981483"
         id="tspan3685">135</tspan></text>
  </g>
  <path
     d="M 84.425678,31.448826 C 20.822352,51.270826 22.62309,51.465232 22.62309,51.465232"
     inkscape:connector-curvature="0"
     id="path3697"
     style="fill:#c1c0c2;fill-opacity:1;fill-rule:evenodd;stroke:#cbc9ca;stroke-width:3.43397164;stroke-linecap:round;stroke-linejoin:round;stroke-miterlimit:4;stroke-opacity:1;stroke-dasharray:3.43397139, 3.43397139;stroke-dashoffset:0" />
  <g
     transform="matrix(0.45418942,0.83437181,-0.83437181,0.45418942,50.93331,-24.529104)"
     id="g3207">
    <path
       d="m 96.52352,59.509204 c -29.455343,0 -51.469115,0 -92.433541,0 0,-25.511657 20.705113,-46.21677 46.21677,-46.21677 25.511657,0 46.216771,20.705113 46.216771,46.21677 z"
       inkscape:connector-curvature="0"
       id="path2200"
       style="fill:url(#linearGradient3217);fill-opacity:1;fill-rule:evenodd;stroke:#000000;stroke-width:1px;stroke-linecap:butt;stroke-linejoin:miter;stroke-opacity:1" />
    <path
       d="M 49.946865,59.191757 16.406253,44.970273 m 33.828912,13.928004 0.07159,-36.986598 M 50.611846,59.057108 84.207245,44.970273 M 87.000381,59.26463 49.946865,59.337502 13.613118,59.26463 M 24.360434,32.852106 50.10289,58.954052 36.264704,24.755004 m 28.084091,0 L 50.51061,58.954052 76.253065,32.852106"
       inkscape:connector-curvature="0"
       id="path3183"
       style="fill:none;stroke:#000000;stroke-width:0.64609098;stroke-linecap:round;stroke-linejoin:round;stroke-miterlimit:4;stroke-opacity:1;stroke-dasharray:none;stroke-dashoffset:0" />
    <text
       x="16.601501"
       y="32.732803"
       id="text3195"
       xml:space="preserve"
       style="font-size:6.36857796px;font-style:normal;font-weight:normal;fill:#000000;fill-opacity:1;stroke:none;font-family:Bitstream Vera Sans"><tspan
         x="16.601501"
         y="32.732803"
         id="tspan3197">45</tspan></text>
    <text
       x="45.530113"
       y="19.400709"
       id="text3199"
       xml:space="preserve"
       style="font-size:6.36857796px;font-style:normal;font-weight:normal;fill:#000000;fill-opacity:1;stroke:none;font-family:Bitstream Vera Sans"><tspan
         x="45.530113"
         y="19.400709"
         id="tspan3201">90</tspan></text>
    <text
       x="72.773872"
       y="32.981483"
       id="text3203"
       xml:space="preserve"
       style="font-size:6.36857796px;font-style:normal;font-weight:normal;fill:#000000;fill-opacity:1;stroke:none;font-family:Bitstream Vera Sans"><tspan
         x="72.773872"
         y="32.981483"
         id="tspan3205">135</tspan></text>
  </g>
  <path
     d="M 82.978008,25.727093 C 19.374677,45.549092 21.175426,45.743499 21.175426,45.743499"
     inkscape:connector-curvature="0"
     id="path3667"
     style="fill:none;stroke:#000000;stroke-width:3.43397164;stroke-linecap:round;stroke-linejoin:round;stroke-miterlimit:4;stroke-opacity:1;stroke-dasharray:3.43397139, 3.43397139;stroke-dashoffset:0" />
  <g
     transform="matrix(0.87828132,0,0,0.87828132,51.185162,4.2483171)"
     id="use2508">
    <path
       d="m 49.066773,24.22879 c 0.0012,6.850275 -5.551709,12.404157 -12.401985,12.404157 -6.850275,0 -12.403184,-5.553882 -12.401985,-12.404157 -0.0012,-6.850276 5.55171,-12.404157 12.401985,-12.404157 6.850276,0 12.403184,5.553881 12.401985,12.404157 l 0,0 z"
       inkscape:connector-curvature="0"
       id="path2428"
       style="fill:#0000ff;fill-opacity:1;fill-rule:evenodd;stroke:#000000;stroke-width:0.38027155px;stroke-linecap:butt;stroke-linejoin:miter;stroke-opacity:1" />
    <path
       d="m 45.562914,32.95223 c -4.843029,4.844723 -12.696715,4.845411 -17.54059,0.0015 -4.843878,-4.843877 -4.843189,-12.697563 0.0015,-17.54059 4.843028,-4.844725 12.696714,-4.845413 17.540591,-0.0015 4.843875,4.843876 4.843187,12.697563 -0.0015,17.540591 l 0,0 z"
       inkscape:connector-curvature="0"
       id="path2430"
       style="opacity:0.71739131;fill:url(#linearGradient2434);fill-opacity:1;fill-rule:evenodd;stroke:none" />
    <path
       d="m 39.147988,19.481422 c 6.73e-4,3.844893 -3.11604,6.962154 -6.960935,6.962154 -3.844894,0 -6.961608,-3.117261 -6.960935,-6.962154 -6.73e-4,-3.844895 3.116041,-6.962154 6.960935,-6.962154 3.844895,0 6.961608,3.117259 6.960935,6.962154 l 0,0 z"
       inkscape:connector-curvature="0"
       id="path2432"
       style="fill:url(#radialGradient2436);fill-opacity:1;fill-rule:evenodd;stroke:none" />
  </g>
  <g
     transform="matrix(0.87828132,0,0,0.87828132,-11.818763,24.02327)"
     id="use2506">
    <path
       d="m 49.066773,24.22879 c 0.0012,6.850275 -5.551709,12.404157 -12.401985,12.404157 -6.850275,0 -12.403184,-5.553882 -12.401985,-12.404157 -0.0012,-6.850276 5.55171,-12.404157 12.401985,-12.404157 6.850276,0 12.403184,5.553881 12.401985,12.404157 l 0,0 z"
       inkscape:connector-curvature="0"
       id="path2440"
       style="fill:#0000ff;fill-opacity:1;fill-rule:evenodd;stroke:#000000;stroke-width:0.38027155px;stroke-linecap:butt;stroke-linejoin:miter;stroke-opacity:1" />
    <path
       d="m 45.562914,32.95223 c -4.843029,4.844723 -12.696715,4.845411 -17.54059,0.0015 -4.843878,-4.843877 -4.843189,-12.697563 0.0015,-17.54059 4.843028,-4.844725 12.696714,-4.845413 17.540591,-0.0015 4.843875,4.843876 4.843187,12.697563 -0.0015,17.540591 l 0,0 z"
       inkscape:connector-curvature="0"
       id="path2442"
       style="opacity:0.71739131;fill:url(#linearGradient2446);fill-opacity:1;fill-rule:evenodd;stroke:none" />
    <path
       d="m 39.147988,19.481422 c 6.73e-4,3.844893 -3.11604,6.962154 -6.960935,6.962154 -3.844894,0 -6.961608,-3.117261 -6.960935,-6.962154 -6.73e-4,-3.844895 3.116041,-6.962154 6.960935,-6.962154 3.844895,0 6.961608,3.117259 6.960935,6.962154 l 0,0 z"
       inkscape:connector-curvature="0"
       id="path2444"
       style="fill:url(#radialGradient2448);fill-opacity:1;fill-rule:evenodd;stroke:none" />
  </g>
  <path
     d="m 24.67615,48.266242 7.264855,45.312873 10.805659,-6.238657 7.25683,12.569189 6.733499,-3.887573 L 49.480162,83.452875 60.285806,77.214229 24.67615,48.266242 z"
     inkscape:connector-curvature="0"
     id="path3688"
     style="fill:#282828;fill-opacity:1;fill-rule:evenodd;stroke:none" />
  <path
     d="m 22.172458,45.485658 7.264855,45.312863 10.805659,-6.238646 7.25683,12.569189 6.733499,-3.887583 L 46.97647,80.672292 57.782128,74.433634 22.172458,45.485658 z"
     inkscape:connector-curvature="0"
     id="path6783"
     style="fill:#ffffff;fill-opacity:1;fill-rule:evenodd;stroke:#000000;stroke-width:1.77718234;stroke-linecap:round;stroke-linejoin:round;stroke-miterlimit:4;stroke-opacity:1;stroke-dashoffset:0" />
</svg>

<?xml version="1.0" encoding="UTF-8" standalone="no"?>
<!-- Created with Inkscape (http://www.inkscape.org/) -->
<svg
   xmlns:svg="http://www.w3.org/2000/svg"
   xmlns="http://www.w3.org/2000/svg"
   xmlns:xlink="http://www.w3.org/1999/xlink"
   version="1.0"
   width="100"
   height="100"
   id="svg2">
  <defs
     id="defs4">
    <linearGradient
       id="linearGradient3187">
      <stop
         id="stop3189"
         style="stop-color:#cccdff;stop-opacity:1"
         offset="0" />
      <stop
         id="stop3191"
         style="stop-color:#cccdca;stop-opacity:0.33333334"
         offset="1" />
    </linearGradient>
    <linearGradient
       id="linearGradient3384">
      <stop
         id="stop3386"
         style="stop-color:#0000ff;stop-opacity:1"
         offset="0" />
      <stop
         id="stop3388"
         style="stop-color:#000000;stop-opacity:1"
         offset="1" />
    </linearGradient>
    <linearGradient
       id="linearGradient3252">
      <stop
         id="stop3254"
         style="stop-color:#ffffff;stop-opacity:1"
         offset="0" />
      <stop
         id="stop3256"
         style="stop-color:#7f7fff;stop-opacity:0"
         offset="1" />
    </linearGradient>
    <linearGradient
       x1="3.5899789"
       y1="36.400818"
       x2="97.023521"
       y2="36.400818"
       id="linearGradient3217"
       xlink:href="#linearGradient3187"
       gradientUnits="userSpaceOnUse" />
    <linearGradient
       x1="25.398125"
       y1="63.345894"
       x2="90.625114"
       y2="63.345894"
       id="linearGradient2434"
       xlink:href="#linearGradient3384"
       gradientUnits="userSpaceOnUse"
       gradientTransform="matrix(0.2688926,0.2688926,-0.2688926,0.2688926,38.227733,-8.4494346)" />
    <radialGradient
       cx="58.01162"
       cy="63.345894"
       r="33.113495"
       fx="58.01162"
       fy="63.345894"
       id="radialGradient2436"
       xlink:href="#linearGradient3252"
       gradientUnits="userSpaceOnUse"
       gradientTransform="matrix(0.2134373,0,0,0.2134373,19.805211,5.9610473)" />
    <linearGradient
       x1="25.398125"
       y1="63.345894"
       x2="90.625114"
       y2="63.345894"
       id="linearGradient2446"
       xlink:href="#linearGradient3384"
       gradientUnits="userSpaceOnUse"
       gradientTransform="matrix(0.2688926,0.2688926,-0.2688926,0.2688926,38.227733,-8.4494346)" />
    <radialGradient
       cx="58.01162"
       cy="63.345894"
       r="33.113495"
       fx="58.01162"
       fy="63.345894"
       id="radialGradient2448"
       xlink:href="#linearGradient3252"
       gradientUnits="userSpaceOnUse"
       gradientTransform="matrix(0.2134373,0,0,0.2134373,19.805211,5.9610473)" />
  </defs>
  <path
     d="M 31.803576,49.64505 C 31.804576,55.661518 26.927615,60.539388 20.911138,60.539388 C 14.894673,60.539388 10.017654,55.661518 10.018713,49.64505 C 10.017713,43.62858 14.894673,38.750712 20.911138,38.750712 C 26.927615,38.750712 31.804622,43.62858 31.803576,49.64505 L 31.803576,49.64505 z"
     id="use2515"
     style="fill:#eaede8;fill-opacity:1;fill-rule:evenodd;stroke:none" />
  <path
     d="M 97.336857,29.180273 C 97.337857,35.196741 92.460892,40.074609 86.444415,40.074609 C 80.427951,40.074609 75.550931,35.196741 75.55199,29.180273 C 75.55099,23.163803 80.427951,18.285933 86.444415,18.285933 C 92.460892,18.285933 97.337905,23.163803 97.336857,29.180273 L 97.336857,29.180273 z"
     id="use2517"
     style="fill:#c1c0c2;fill-opacity:1;fill-rule:evenodd;stroke:none" />
  <g
     transform="matrix(0.4541894,0.8343718,-0.8343718,0.4541894,52.380979,-18.807371)"
     id="g3669"
     style="fill:#c1c0c2;fill-opacity:1;stroke:none">
    <path
       d="M 96.52352,59.509204 C 67.068177,59.509204 45.054405,59.509204 4.089979,59.509204 C 4.089979,33.997547 24.795092,13.292434 50.306749,13.292434 C 75.818406,13.292434 96.52352,33.997547 96.52352,59.509204 z"
       id="path3671"
       style="fill:#c1c0c2;fill-opacity:1;fill-rule:evenodd;stroke:none" />
    <path
       d="M 49.946865,59.191757 L 16.406253,44.970273 M 50.235165,58.898277 L 50.306755,21.911679 M 50.611846,59.057108 L 84.207245,44.970273 M 87.000381,59.26463 L 49.946865,59.337502 L 13.613118,59.26463 M 24.360434,32.852106 L 50.10289,58.954052 L 36.264704,24.755004 M 64.348795,24.755004 L 50.51061,58.954052 L 76.253065,32.852106"
       id="path3673"
       style="fill:#c1c0c2;fill-opacity:1;fill-rule:evenodd;stroke:none" />
    <text
       x="16.601501"
       y="32.732803"
       id="text3675"
       xml:space="preserve"
       style="font-size:6.36857796px;font-style:normal;font-weight:normal;fill:#c1c0c2;fill-opacity:1;stroke:none;font-family:Bitstream Vera Sans"><tspan
         x="16.601501"
         y="32.732803"
         id="tspan3677">45</tspan></text>
    <text
       x="45.530113"
       y="19.400709"
       id="text3679"
       xml:space="preserve"
       style="font-size:6.36857796px;font-style:normal;font-weight:normal;fill:#c1c0c2;fill-opacity:1;stroke:none;font-family:Bitstream Vera Sans"><tspan
         x="45.530113"
         y="19.400709"
         id="tspan3681">90</tspan></text>
    <text
       x="72.773872"
       y="32.981483"
       id="text3683"
       xml:space="preserve"
       style="font-size:6.36857796px;font-style:normal;font-weight:normal;fill:#c1c0c2;fill-opacity:1;stroke:none;font-family:Bitstream Vera Sans"><tspan
         x="72.773872"
         y="32.981483"
         id="tspan3685">135</tspan></text>
  </g>
  <path
     d="M 84.425678,31.448826 C 20.822352,51.270826 22.62309,51.465232 22.62309,51.465232"
     id="path3697"
     style="fill:#c1c0c2;fill-opacity:1;fill-rule:evenodd;stroke:#cbc9ca;stroke-width:3.43397164;stroke-linecap:round;stroke-linejoin:round;stroke-miterlimit:4;stroke-dasharray:3.43397139, 3.43397139;stroke-dashoffset:0;stroke-opacity:1" />
  <g
     transform="matrix(0.4541894,0.8343718,-0.8343718,0.4541894,50.93331,-24.529104)"
     id="g3207">
    <path
       d="M 96.52352,59.509204 C 67.068177,59.509204 45.054405,59.509204 4.089979,59.509204 C 4.089979,33.997547 24.795092,13.292434 50.306749,13.292434 C 75.818406,13.292434 96.52352,33.997547 96.52352,59.509204 z"
       id="path2200"
       style="fill:url(#linearGradient3217);fill-opacity:1;fill-rule:evenodd;stroke:#000000;stroke-width:1px;stroke-linecap:butt;stroke-linejoin:miter;stroke-opacity:1" />
    <path
       d="M 49.946865,59.191757 L 16.406253,44.970273 M 50.235165,58.898277 L 50.306755,21.911679 M 50.611846,59.057108 L 84.207245,44.970273 M 87.000381,59.26463 L 49.946865,59.337502 L 13.613118,59.26463 M 24.360434,32.852106 L 50.10289,58.954052 L 36.264704,24.755004 M 64.348795,24.755004 L 50.51061,58.954052 L 76.253065,32.852106"
       id="path3183"
       style="fill:none;stroke:#000000;stroke-width:0.64609098;stroke-linecap:round;stroke-linejoin:round;stroke-miterlimit:4;stroke-dasharray:none;stroke-dashoffset:0;stroke-opacity:1" />
    <text
       x="16.601501"
       y="32.732803"
       id="text3195"
       xml:space="preserve"
       style="font-size:6.36857796px;font-style:normal;font-weight:normal;fill:#000000;fill-opacity:1;stroke:none;font-family:Bitstream Vera Sans"><tspan
         x="16.601501"
         y="32.732803"
         id="tspan3197">45</tspan></text>
    <text
       x="45.530113"
       y="19.400709"
       id="text3199"
       xml:space="preserve"
       style="font-size:6.36857796px;font-style:normal;font-weight:normal;fill:#000000;fill-opacity:1;stroke:none;font-family:Bitstream Vera Sans"><tspan
         x="45.530113"
         y="19.400709"
         id="tspan3201">90</tspan></text>
    <text
       x="72.773872"
       y="32.981483"
       id="text3203"
       xml:space="preserve"
       style="font-size:6.36857796px;font-style:normal;font-weight:normal;fill:#000000;fill-opacity:1;stroke:none;font-family:Bitstream Vera Sans"><tspan
         x="72.773872"
         y="32.981483"
         id="tspan3205">135</tspan></text>
  </g>
  <path
     d="M 82.978008,25.727093 C 19.374677,45.549092 21.175426,45.743499 21.175426,45.743499"
     id="path3667"
     style="fill:none;stroke:#000000;stroke-width:3.43397164;stroke-linecap:round;stroke-linejoin:round;stroke-miterlimit:4;stroke-dasharray:3.43397139, 3.43397139;stroke-dashoffset:0;stroke-opacity:1" />
  <g
     transform="matrix(0.8782813,0,0,0.8782813,51.185162,4.2483171)"
     id="use2508">
    <path
       d="M 49.066773,24.22879 C 49.067973,31.079065 43.515064,36.632947 36.664788,36.632947 C 29.814513,36.632947 24.261604,31.079065 24.262803,24.22879 C 24.261603,17.378514 29.814513,11.824633 36.664788,11.824633 C 43.515064,11.824633 49.067972,17.378514 49.066773,24.22879 L 49.066773,24.22879 L 49.066773,24.22879 z"
       id="path2428"
       style="fill:#0000ff;fill-opacity:1;fill-rule:evenodd;stroke:#000000;stroke-width:0.38027155px;stroke-linecap:butt;stroke-linejoin:miter;stroke-opacity:1" />
    <path
       d="M 45.562914,32.95223 C 40.719885,37.796953 32.866199,37.797641 28.022324,32.95373 C 23.178446,28.109853 23.179135,20.256167 28.023824,15.41314 C 32.866852,10.568415 40.720538,10.567727 45.564415,15.41164 C 50.40829,20.255516 50.407602,28.109203 45.562915,32.952231 L 45.562915,32.952231 L 45.562914,32.95223 z"
       id="path2430"
       style="opacity:0.71739131;fill:url(#linearGradient2434);fill-opacity:1;fill-rule:evenodd;stroke:none" />
    <path
       d="M 39.147988,19.481422 C 39.148661,23.326315 36.031948,26.443576 32.187053,26.443576 C 28.342159,26.443576 25.225445,23.326315 25.226118,19.481422 C 25.225445,15.636527 28.342159,12.519268 32.187053,12.519268 C 36.031948,12.519268 39.148661,15.636527 39.147988,19.481422 L 39.147988,19.481422 z"
       id="path2432"
       style="fill:url(#radialGradient2436);fill-opacity:1;fill-rule:evenodd;stroke:none" />
  </g>
  <g
     transform="matrix(0.8782813,0,0,0.8782813,-11.818763,24.02327)"
     id="use2506">
    <path
       d="M 49.066773,24.22879 C 49.067973,31.079065 43.515064,36.632947 36.664788,36.632947 C 29.814513,36.632947 24.261604,31.079065 24.262803,24.22879 C 24.261603,17.378514 29.814513,11.824633 36.664788,11.824633 C 43.515064,11.824633 49.067972,17.378514 49.066773,24.22879 L 49.066773,24.22879 L 49.066773,24.22879 z"
       id="path2440"
       style="fill:#0000ff;fill-opacity:1;fill-rule:evenodd;stroke:#000000;stroke-width:0.38027155px;stroke-linecap:butt;stroke-linejoin:miter;stroke-opacity:1" />
    <path
       d="M 45.562914,32.95223 C 40.719885,37.796953 32.866199,37.797641 28.022324,32.95373 C 23.178446,28.109853 23.179135,20.256167 28.023824,15.41314 C 32.866852,10.568415 40.720538,10.567727 45.564415,15.41164 C 50.40829,20.255516 50.407602,28.109203 45.562915,32.952231 L 45.562915,32.952231 L 45.562914,32.95223 z"
       id="path2442"
       style="opacity:0.71739131;fill:url(#linearGradient2446);fill-opacity:1;fill-rule:evenodd;stroke:none" />
    <path
       d="M 39.147988,19.481422 C 39.148661,23.326315 36.031948,26.443576 32.187053,26.443576 C 28.342159,26.443576 25.225445,23.326315 25.226118,19.481422 C 25.225445,15.636527 28.342159,12.519268 32.187053,12.519268 C 36.031948,12.519268 39.148661,15.636527 39.147988,19.481422 L 39.147988,19.481422 z"
       id="path2444"
       style="fill:url(#radialGradient2448);fill-opacity:1;fill-rule:evenodd;stroke:none" />
  </g>
  <path
     d="M 24.67615,48.266242 L 31.941005,93.579115 L 42.746664,87.340458 L 50.003494,99.909647 L 56.736993,96.022074 L 49.480162,83.452875 L 60.285806,77.214229 L 24.67615,48.266242 z"
     id="path3688"
     style="fill:#282828;fill-opacity:1;fill-rule:evenodd;stroke:none" />
  <path
     d="M 22.172458,45.485658 L 29.437313,90.798521 L 40.242972,84.559875 L 47.499802,97.129064 L 54.233301,93.241481 L 46.97647,80.672292 L 57.782128,74.433634 L 22.172458,45.485658 z"
     id="path6783"
     style="fill:#ffffff;fill-opacity:1;fill-rule:evenodd;stroke:#000000;stroke-width:1.77718234;stroke-linecap:round;stroke-linejoin:round;stroke-miterlimit:4;stroke-dashoffset:0;stroke-opacity:1" />
</svg>
